src/commons/assets/ex/ic-cart.svg

<?xml version="1.0" encoding="UTF-8"?>
<svg width="48px" height="48px" viewBox="0 0 48 48" version="1.1" xmlns="http://www.w3.org/2000/svg" xmlns:xlink="http://www.w3.org/1999/xlink">
    <!-- Generator: Sketch 61.2 (89653) - https://sketch.com -->
    <title>icon/cart</title>
    <desc>Created with Sketch.</desc>
    <g id="icon/cart" stroke="none" stroke-width="1" fill="none" fill-rule="evenodd">
        <g transform="translate(-0.000016, -0.000108)">
            <rect id="hotspot" fill="#D8D8D8" opacity="0" x="1.63153152e-05" y="0.000108296363" width="48" height="48"></rect>
            <path d="M11.3836561,39.7758851 C12.3069328,38.9105181 13.372236,38.4778411 14.5795978,38.4778411 C15.7869596,38.4778411 16.8167527,38.9105181 17.6690081,39.7758851 C18.5212634,40.6412521 18.9473847,41.6868882 18.9473847,42.9128247 C18.9473847,44.1387613 18.5212634,45.2024256 17.6690081,46.1038496 C16.8167527,47.0052735 15.7869596,47.4559787 14.5795978,47.4559787 C13.372236,47.4559787 12.3246878,47.0052735 11.4369218,46.1038496 C10.5491558,45.2024256 10.1052795,44.1387613 10.1052795,42.9128247 C10.1052795,41.6868882 10.5314008,40.6412521 11.3836561,39.7758851 Z M1.63153152e-05,0.000108296363 L7.84617016,0.000108296363 L10.0384779,4.75323999 L45.5769394,4.75323999 C46.1923271,4.75323999 46.7500138,4.97957734 47.2500163,5.43225881 C47.7500188,5.88494028 48.0000163,6.41306074 48.0000163,7.01663604 C48.0000163,7.46931751 47.923094,7.84654642 47.7692471,8.14833406 L39.1154009,22.7472386 C38.2692429,24.4070706 36.8846413,25.2369742 34.9615548,25.2369742 L17.0769394,25.2369742 L14.6538625,28.8584079 L14.5061698,29.2386591 C14.4507853,29.3925699 14.4230932,29.4921586 14.4230932,29.5374267 C14.4230932,29.9146613 14.615399,30.1032757 15.0000163,30.1032757 L42.4615548,30.1032757 L42.4615548,34.6300678 L14.4230932,34.6300678 C12.884624,34.6300678 11.6346365,34.215116 10.6730932,33.3852 C9.71154997,32.555284 9.23078555,31.3858744 9.23078555,29.8769361 C9.23078555,28.9715777 9.42309132,28.2171154 9.80770862,27.6135401 L13.3846317,21.8418801 L4.84617016,4.75323999 L1.63153152e-05,4.75323999 L1.63153152e-05,0.000108296363 Z M35.3836561,39.7758851 C36.2359115,38.9105181 37.2657046,38.4778411 38.4730664,38.4778411 C39.6804282,38.4778411 40.7279764,38.9105181 41.6157424,39.7758851 C42.5035084,40.6412521 42.9473847,41.6868882 42.9473847,42.9128247 C42.9473847,44.1387613 42.5035084,45.2024256 41.6157424,46.1038496 C40.7279764,47.0052735 39.6804282,47.4559787 38.4730664,47.4559787 C37.2657046,47.4559787 36.2359115,47.0052735 35.3836561,46.1038496 C34.5314008,45.2024256 34.1052795,44.1387613 34.1052795,42.9128247 C34.1052795,41.6868882 34.5314008,40.6412521 35.3836561,39.7758851 Z" id="cart" fill="#000000"></path>
        </g>
    </g>
</svg>

<svg xmlns="http://www.w3.org/2000/svg" viewBox="0 0 48 48"><path d="M11.384 39.776c.923-.866 1.988-1.298 3.196-1.298 1.207 0 2.237.432 3.089 1.298.852.865 1.278 1.91 1.278 3.137 0 1.226-.426 2.29-1.278 3.19-.852.902-1.882 1.353-3.09 1.353-1.207 0-2.254-.45-3.142-1.352-.888-.902-1.332-1.965-1.332-3.191 0-1.226.426-2.272 1.279-3.137zM0 0h7.846l2.192 4.753h35.539c.615 0 1.173.226 1.673.68.5.452.75.98.75 1.584 0 .452-.077.83-.23 1.131l-8.655 14.6c-.846 1.659-2.23 2.489-4.153 2.489H17.077l-2.423 3.621-.148.38a1.217 1.217 0 00-.083.3c0 .377.192.565.577.565h27.462v4.527H14.423c-1.538 0-2.788-.415-3.75-1.245-.961-.83-1.442-2-1.442-3.508 0-.906.192-1.66.577-2.264l3.577-5.771L4.846 4.753H0V0zm35.384 39.776c.852-.866 1.882-1.298 3.09-1.298 1.206 0 2.254.432 3.142 1.298.887.865 1.331 1.91 1.331 3.137 0 1.226-.444 2.29-1.331 3.19-.888.902-1.936 1.353-3.143 1.353-1.207 0-2.237-.45-3.09-1.352-.852-.902-1.278-1.965-1.278-3.191 0-1.226.426-2.272 1.279-3.137z"/></svg>
